shared/images/iconfont/41-kb-iconfont-folder-up-16.svg

<svg height="16" viewBox="0 0 16 16" width="16" xmlns="http://www.w3.org/2000/svg"><path d="m7.333 3h7.334c.736 0 1.333.764 1.333 1.5v9c0 .736-.597 1.5-1.333 1.5h-13.334c-.736 0-1.333-.764-1.333-1.5v-11.167c0-.736.597-1.333 1.333-1.333h4.667zm.667 5.881 1.72 1.525a.82.82 0 0 0 1.06 0 .613.613 0 0 0 .001-.94l-2.781-2.466-2.781 2.466a.613.613 0 0 0 0 .94.82.82 0 0 0 1.06 0z"/></svg>

<svg xmlns="http://www.w3.org/2000/svg" width="16" height="16" viewBox="0 0 16 16">
    <path fill="#000" fill-rule="nonzero" d="M7.333 3h7.334C15.403 3 16 3.764 16 4.5v9c0 .736-.597 1.5-1.333 1.5H1.333C.597 15 0 14.236 0 13.5V2.333C0 1.597.597 1 1.333 1H6l1.333 2zM8 8.881l1.72 1.525a.82.82 0 0 0 1.06 0 .613.613 0 0 0 .001-.94L8 7 5.219 9.466a.613.613 0 0 0 0 .94.82.82 0 0 0 1.06 0L8 8.881z"/>
</svg>
